X: 18166
T: Humours Of Drinagh, The
R: jig
M: 6/8
K: Dmajor
|:FDF ABc|dfd ecA|FDF ABc|dcA G3|
FDF ABc|dfd ecA|fef gec|1 Adc dAG:|2 Adc d2 e||
|:fef gfg|agf gfe|fef gfg|agf ~g3|
agf gfe|fed ecA|f2 f gec|1 Adc d2 e:|2 Adc dAG||

